resources/svg/regular/category.svg

<svg xmlns="http://www.w3.org/2000/svg" fill="currentColor" stroke="none" viewBox="0 0 24 24"><path d="M10 3H4C3.447 3 3 3.447 3 4v6c0 .553.447 1 1 1h6c.553 0 1-.447 1-1V4C11 3.447 10.553 3 10 3zM9 9H5V5h4V9zM20 3h-6c-.553 0-1 .447-1 1v6c0 .553.447 1 1 1h6c.553 0 1-.447 1-1V4C21 3.447 20.553 3 20 3zM19 9h-4V5h4V9zM10 13H4c-.553 0-1 .447-1 1v6c0 .553.447 1 1 1h6c.553 0 1-.447 1-1v-6C11 13.447 10.553 13 10 13zM9 19H5v-4h4V19zM17 13c-2.206 0-4 1.794-4 4s1.794 4 4 4 4-1.794 4-4S19.206 13 17 13zM17 19c-1.103 0-2-.897-2-2s.897-2 2-2 2 .897 2 2S18.103 19 17 19z"/></svg>

<svg xmlns="http://www.w3.org/2000/svg" fill="currentColor" stroke="none" viewBox="0 0 24 24"><path d="M10 3H4a1 1 0 0 0-1 1v6a1 1 0 0 0 1 1h6a1 1 0 0 0 1-1V4a1 1 0 0 0-1-1zM9 9H5V5h4v4zm11-6h-6a1 1 0 0 0-1 1v6a1 1 0 0 0 1 1h6a1 1 0 0 0 1-1V4a1 1 0 0 0-1-1zm-1 6h-4V5h4v4zm-9 4H4a1 1 0 0 0-1 1v6a1 1 0 0 0 1 1h6a1 1 0 0 0 1-1v-6a1 1 0 0 0-1-1zm-1 6H5v-4h4v4zm8-6c-2.206 0-4 1.794-4 4s1.794 4 4 4 4-1.794 4-4-1.794-4-4-4zm0 6c-1.103 0-2-.897-2-2s.897-2 2-2 2 .897 2 2-.897 2-2 2z"/></svg>
